X:1
T:The Murder of Colonel Sharp
M:3/4
L:1/8
K:D
 B2| AGA B d4| A3 Bd d| BG
M:3/4
| A4 z B/2B/2| D3 DE G| A4 BA|
M:2/4
 GAG E|
M:3/4
 D4 z2|
